X:1
T:In van speri
T:Benedetto Ferrari
T:Source : Musiche Varie a voce sola---Libro secondo---Venetia---B.Magni---1637. Editor : André Vierendeels ( 05/01/17).
T:Notes : Original clefs : C4, F4 Original note values have been halved Figures in BC are notated in original print   
T:In van speri
T:©
T:©
T:©
T:©
C:Benedetto Ferrari
Z:©
%%score 1 2
L:1/8
Q:1/4=101
M:6/4
K:F
V:1 treble-8 nm="Tenor" snm="T"
V:2 bass nm="MusicXML Part"
V:1
 z2 B2 c2 d2 d2 f2 | gf _ed ec d2 d2 c2 | dc BA BG A2 A2 z2 | z2 f2 _e2 e4 d2 | d4 c2 c4 c2 | %5
w: In van spe- ri o|bel- * * * la _ Clo- ri, o|bel- * * * la _ Clo- ri,|di scher- mir del|tem- po'i da- ni|
w: Se tu cre- di à|gli _ ar- * gu- * men- ti, à|gli _ ar- * gu- * men- ti|del tuo vol- to|su- per- bet- to,|
w: Dun- que pri- a ch'im-|bian- * * * ch'il _ cri- ne, ch'im-|bian- * * * ch'il _ cri- ne,|am- mol- li- sc'i|tuoi pen- sie- ri,|
 z2 A2 G2 ^F4 F2 | z2 G2 D2 E2 cB AG | ^F2 dc BA GA Bc d2 | A2 A3 G G4 G2 | z2 B2 F2 G2 _ed cB | %10
w: tu t'in- gan- ni|so- no lam- * * * *||p'i tuoi splen- do- ri,|so- no lam- * * * *|
w: io t'a- sper- to|che do- glio- sa _ _ _|un di _ _ _ _ _ _ _ _|ti pen- * * ti,|quel rag- gio, in _ _ _|
w: coi pia- ce- ri|fà ri- pa- ro'al- * * *|le ru- * * * * * * * *|* i- * * ne,|che fe pas- s'i, _ _ _|
 A2 f_e dc Bc de f2 | c2 c3 B B4 B2 :: B2 c2 d2 G2 AG AB | c2 B4 A2 BA Bc | d6- d2 ed e^f | %15
w: |p'i tuoi splen- do- ri,|ch'o- gni piu va- * * * *|* go fior _ _ _ _|_ _ _ _ _ _|
w: _ cui _ _ _ se _ _ _ bel-|la'ol- tre mi- su- ra,|quel rag- gio, in _ _ _ _|_ cui se bel- * * *||
w: _ ri- * * * gor _ _ _ _|l'e- tà fio- ri- ta,|che fe pas- s _ _ _ _|_ in ri- gor _ _ _|_ _ _ _ _ _|
 g4 d2 d4 c2 | c3 B/A/ GA B2 A3 G- | A6 A2 B2 c2 | d4 e2 f4 e2 | e4 fe d4 c2 | B4 cB A4 G2 | %21
w: * del tuo bel|vi- * * * * * * so,|_ to- sto ca-|drà, ca- drà te|ci- so- * * re,|ci- so- * * re,|
w: * la ol- tre|mi- * * * * * su- ra,|_ ri- splen- *|de, ri- splen- de,|ma non _ du- ra,|ma non _ du- ra,|
w: * l'e- ta fio-|ri- * * * * * * ta,|_ tu pian- ge|ra'i tu pian ge|ra'i pen- * ti- ta,|i pen- * ti- ta,|
 G4 AG F6 | A2 B2 c2 d2 _e2 f2 | g4 c2 c4 dc |[M:3/4] !fermata!B6 :| %25
w: ci- so- * *|re, to- sto ca- drà, ca-|drà re ci- * *|so.|
w: ma non _ du-|ra, ri- splen- * de, ma|non _ du- * *|ra.|
w: i pen- * ti-|ta, tu pian- ge- ra, i|pen- * ti- * *|ta.|
V:2
"^BC" z2 B,2 F,2 B,4 D,2 | _E,4 F,2 B,,4 A,,2 | B,,4 C,2 F,,4 G,,2 | A,,4 =B,,2 C,2 F,,4 | %4
 G,,6 C,,6 | C,6 D,6 | =B,,6 C,6 | D,6 _E,4 D,2 | C,2 D,4 G,,6 | D,6 _E,6 | F,6 G,4 F,2 | %11
 _E,2 F,4 B,,6 :: B,6 _E,2 D,4 | C,2 D,C, D,E, F,2 E,4 | D,2 E,D, E,^F, G,4 =F,2 | %15
 _E,4 F,2 G,2 G,,4 | C,6 D,2 E,4 | F,2 F,,4 F,2 G,2 A,2 | B,4 C2 D2 G,4 |"^4#" A,6 B,2 ^F,4 | %20
"^6" G,2 E,4 F,2 A,,2 B,,2 | C,6 F,6 | F,,2 G,,2 A,,2 B,,2 C,2 D,2 | _E,6 F,2 F,,4 | %24
[M:3/4] !fermata!B,,6 :| %25

